X: 4
T:
P: Vivace
M: 3/8
L: 1/16
K: F
V: 1
|: abTb4 | c'b/a/ b/a/g/f/ c'f | d'2 b4 | g2 z4 | fcacfc | gcbcgc | acc'cbc | abagfg | abTb4 |
	c'b/a/ b/a/g/f/ c'f | d'2b4 | g2z4 | c2d2e2 | f2z4 | (3efg (3fga (3gab | (3abg (3abg (3aga |
	(3gab (3a=bc' (3bc'd' | (3c'd'=b (3c'db (3c'bc' | d'c'=bagf | c=bagfe | f2z4 | e2z4 | dcfedc | =bgabc'2- | c'd'T=b3c' |
	c'=b/a/ g/f/e/d/ g/f/e/d/ | eg eg eg | c'=b/a/ g/f/e/d/ g/f/e/d/ | ec'Td3c | c6 :| efTf4 | gf/e/ f/e/d/c/ gc | gaTg4 | a2z4 |
	add'dad | b2g2b2 | add'dad | b2g2b2 | _e'd'c'bag | c'3d'b2- | baTa3b | g3^fg2- | gf=ed^c=B |
	A=B^cAda | d'e'T^c'3d' | d'c'/b/ a/g/f/e/ d'/c'/=b/c'/ | =b2z4 | c'b/a/ g/f/e/d/ c'/b/a/b/ | (3abc' (3bc'd' (3c'd'_e' | (3d'_e'c' (3d'e'c' (3d'c'd' |
	f2g2a2 | b2z4 | (3abc' (3bc'd' (3gab | (3abg (3abg (3aga | b2z4 | a2z4 | d'c'bagf | c'bagfe |
	bagfba | b2aga2- | abTg3f | f'e'/d'/ c'/b/a/g/  c'/b/a/g/ | ac'ac'ac'  | f'e'/d'/ c'/b/a/g/  c'/b/a/g/ | af'Tg3f | f6 |]
V: 2
K: F
|: fgTg4 | a2z4 | b2g4 | ef/g/ f/e/d/c/ gc | A2f2A2 | e2g2e2 | f2a2g2 | fABGAc | fgTg4 |
	a2z4 | b2g4 | ef/g/ f/e/d/c/ gc | (3efg (3fga (3gab | (3abg (3abg (3aga | c2d2e2 | f2z4 |
	(3efg (3fga (3def | (3efd (3efd (3ede | f2z4 | e2z4 | agfedc | gfedc=B | fedcfe | f3de2- | efTd3c |
	cgegeg |  c'=b/a/ g/f/e/d/ g/f/e/d/ | eg eg eg | c'cT=B3c | c6 :| cdTd4 | e2z4 | deTe4 | fg/a/ g/f/e/d/ ad |
	^f2d2f2 | gdbdgd |  ^f2d2f2 | gdbdgd | c'bag^fe | de^fdgG | BcdcdB | ed^cdce | bagfed |
	g3af2- | fgTe3d | d2z4 | gf/e/ d/c/=B/A/ g/f/e/f/ | e2z4 | f2g2a2 | b2z4 |
	(3abc' (3bc'd' (3c'd'_e' | (3d'_e'c' (3d'e'c' (3d'c'd' | (3cd_e (3d=ef (3efg | (3fge (3fge (3fef | gfedcB | fedcBA | B2z4 | A2z4 |
	gfbagf | ecdef2- | fgTe3f | fc'ac'ac' |  f'e'/d'/ c'/b/a/g/  c'/b/a/g/ | ac'ac'ac'  | f'fB2c2 | F6 |]
